src/assets/icons/airplace_icn.svg

<svg height="150" viewBox="0 0 150 150" width="150" xmlns="http://www.w3.org/2000/svg" xmlns:xlink="http://www.w3.org/1999/xlink"><linearGradient id="a" x1="100%" x2="0%" y1="0%" y2="100%"><stop offset="0" stop-color="#fa7d78"/><stop offset="1" stop-color="#6114cc"/></linearGradient><linearGradient id="b" x1="0%" x2="100%" y1="50%" y2="50%"><stop offset="0" stop-color="#009cf3"/><stop offset="1" stop-color="#16d6d9"/></linearGradient><g fill="none"><path d="m35.7142857 142.857143c-.7219643 0 14.4496429-61.7780359 14.4496429-61.7780359.3697143-1.1927857 1.3392857-2.1065714 2.553-2.4030357 1.21025-.3069285 2.4972143.0592857 3.3796071.9416786l25 25c.7324286.732429 1.1091072 1.743857 1.0358572 2.779714-.07325 1.032357-.5894286 1.981036-1.4195 2.601857l-42.8571429 32.142858c-.6312857.477785-1.3881071.714964-2.1414643.714964z" fill="#50cfcf"/><path d="m117.82925 150c-.760321 0-1.517143-.244143-2.141464-.715l-114.25782171-85.7142857c-1.03585715-.7742857-1.56946429-2.0438214-1.39857143-3.3237857.16742857-1.28 1.01492857-2.3681786 2.21471428-2.8494643l142.85714286-57.14285716c1.217214-.48132143 2.605321-.27203571 3.609786.572 1.007964.83707143 1.475321 2.15889286 1.217214 3.44585715l-28.599321 142.85714271c-.240643 1.20325-1.081179 2.19725-2.228643 2.636714-.411572.156965-.844072.233679-1.273036.233679z" fill="url(#a)"/><path d="m35.7177857 142.857143c-.1918214 0-.3836428-.013964-.5754643-.045357-1.7299285-.2825-2.9994643-1.77525-2.9994643-3.526072v-53.5714283c0-1.1300357.5371072-2.1937857 1.4439286-2.8668928l110.7142853-82.14285719c1.517143-1.12653571 3.637679-.87542857 4.854929.55803572 1.217214 1.44042857 1.105607 3.57492857-.251107 4.88282143l-98.1957859 94.39371414-11.60825 39.876607c-.49175 1.475322-1.8694285 2.441429-3.3830714 2.441429z" fill="url(#b)"/></g></svg>

<?xml version="1.0" encoding="UTF-8"?>
<svg width="150px" height="150px" viewBox="0 0 150 150" version="1.1" xmlns="http://www.w3.org/2000/svg" xmlns:xlink="http://www.w3.org/1999/xlink">
    <!-- Generator: Sketch 50.2 (55047) - http://www.bohemiancoding.com/sketch -->
    <title>airplace_icn</title>
    <desc>Created with Sketch.</desc>
    <defs>
        <linearGradient x1="100%" y1="0%" x2="0%" y2="100%" id="linearGradient-1">
            <stop stop-color="#FA7D78" offset="0%"></stop>
            <stop stop-color="#6114CC" offset="100%"></stop>
        </linearGradient>
        <linearGradient x1="0%" y1="50%" x2="100%" y2="50%" id="linearGradient-2">
            <stop stop-color="#009CF3" offset="0%"></stop>
            <stop stop-color="#16D6D9" offset="100%"></stop>
        </linearGradient>
    </defs>
    <g id="icons" stroke="none" stroke-width="1" fill="none" fill-rule="evenodd">
        <g id="send" fill-rule="nonzero">
            <path d="M35.7142857,142.857143 C34.9923214,142.857143 50.1639286,81.0791071 50.1639286,81.0791071 C50.5336429,79.8863214 51.5032143,78.9725357 52.7169286,78.6760714 C53.9271786,78.3691429 55.2141429,78.7353571 56.0965357,79.61775 L81.0965357,104.61775 C81.8289643,105.350179 82.2056429,106.361607 82.1323929,107.397464 C82.0591429,108.429821 81.5429643,109.3785 80.7128929,109.999321 L37.85575,142.142179 C37.2244643,142.619964 36.4676429,142.857143 35.7142857,142.857143 Z" id="Shape" fill="#50CFCF"></path>
            <path d="M117.82925,150 C117.068929,150 116.312107,149.755857 115.687786,149.285 L1.42996429,63.5707143 C0.394107143,62.7964286 -0.1395,61.5268929 0.0313928571,60.2469286 C0.198821429,58.9669286 1.04632143,57.87875 2.24610714,57.3974643 L145.10325,0.254607143 C146.320464,-0.226714286 147.708571,-0.0174285714 148.713036,0.826607143 C149.721,1.66367857 150.188357,2.9855 149.93025,4.27246429 L121.330929,147.129607 C121.090286,148.332857 120.24975,149.326857 119.102286,149.766321 C118.690714,149.923286 118.258214,150 117.82925,150 Z" id="Shape" fill="url(#linearGradient-1)"></path>
            <path d="M35.7177857,142.857143 C35.5259643,142.857143 35.3341429,142.843179 35.1423214,142.811786 C33.4123929,142.529286 32.1428571,141.036536 32.1428571,139.285714 L32.1428571,85.7142857 C32.1428571,84.58425 32.6799643,83.5205 33.5867857,82.8473929 L144.301071,0.704535714 C145.818214,-0.422 147.93875,-0.170892857 149.156,1.26257143 C150.373214,2.703 150.261607,4.8375 148.904893,6.14539286 L50.7091071,100.539107 L39.1008571,140.415714 C38.6091071,141.891036 37.2314286,142.857143 35.7177857,142.857143 Z" id="Shape" fill="url(#linearGradient-2)"></path>
        </g>
    </g>
</svg>
